src/epub/images/titlepage.svg

<?xml version="1.0" encoding="utf-8"?>
<svg xmlns="http://www.w3.org/2000/svg" xmlns:svg="http://www.w3.org/2000/svg" version="1.1" viewBox="0 0 1400 440">
	<title>The titlepage for the Standard Ebooks edition of The Grand Babylon Hotel, by Arnold Bennett</title>
	<g>
		<path d="m 395.20394,68.245613 18.33918,0 0,61.754387 17.59065,0 0,-61.754387 18.33918,0 0,-15.438597 -54.26901,0 0,15.438597 z"/>
		<path d="m 478.39839,99.029239 24.88889,0 0,30.970761 17.59064,0 0,-77.192984 -17.59064,0 0,30.783626 -24.88889,0 0,-30.783626 -17.59065,0 0,77.192984 17.59065,0 0,-30.970761 z"/>
		<path d="m 581.24342,52.807016 -44.16374,0 0,77.192984 44.16374,0 0,-15.4386 -26.5731,0 0,-15.532161 25.45029,0 0,-15.438597 -25.45029,0 0,-15.345029 26.5731,0 0,-15.438597 z"/>
		<path d="m 696.74196,86.771929 -35.64912,0 0,13.567251 17.77778,0 c 0,9.45029 -8.32749,14.87719 -16.74854,14.87719 -10.8538,0 -19.64912,-10.66666 -19.64912,-23.766078 0,-13.380117 8.79532,-24.140352 19.64912,-24.140352 6.83041,0 12.72515,2.713451 17.21637,9.918129 L 690.84723,64.59649 c -6.73685,-8.140351 -16.18714,-13.192983 -29.75439,-13.192983 -21.7076,0 -37.61404,17.871346 -37.61404,40.046785 0,22.081868 16.84211,39.953218 37.61404,39.953218 15.1579,0 31.4386,-8.32749 35.64912,-27.88304 l 0,-16.748541 z"/>
		<path d="m 709.42616,52.807016 0,77.192984 17.59064,0 0,-30.502925 L 750.59575,130 l 22.36257,0 -26.5731,-31.906433 c 9.4503,-2.994152 15.81287,-10.760234 15.81287,-22.362574 0,-15.157895 -10.8538,-22.923977 -25.16959,-22.923977 l -27.60234,0 z m 17.59064,34.245615 0,-20.210527 2.05848,0 c 6.64328,0 14.59649,0.467836 14.59649,10.105263 0,9.637428 -7.95321,10.105264 -14.59649,10.105264 l -2.05848,0 z"/>
		<path d="m 820.69956,52.807016 -16.2807,0 L 773.26097,130 l 18.90058,0 5.7076,-15.4386 29.38012,0 5.7076,15.4386 18.90059,0 -31.1579,-77.192984 z m 0.56141,46.31579 -17.40351,0 8.60819,-22.45614 0.18713,0 8.60819,22.45614 z"/>
		<path d="m 877.36769,82.093566 0.18714,0 L 908.24489,130 l 17.59064,0 0,-77.192984 -17.59064,0 0,47.906434 -0.18714,0 -30.69006,-47.906434 -17.59064,0 0,77.192984 17.59064,0 0,-47.906434 z"/>
		<path d="m 942.07969,52.807016 0,77.192984 22.36258,0 c 21.23976,0 38.92393,-16.09357 38.92393,-38.643276 0,-22.45614 -17.77773,-38.549708 -38.92393,-38.549708 l -22.36258,0 z m 17.59065,61.473684 0,-45.754385 2.71345,0 c 13.09941,0 21.9883,10.011696 21.9883,22.923977 -0.0936,12.912278 -8.98245,22.830408 -21.9883,22.830408 l -2.71345,0 z"/>
	</g>
	<g>
		<path d="m 268.99853,152.80702 0,77.19298 29.28655,0 c 16,0 25.26316,-8.79532 25.26316,-21.52047 0,-12.44444 -6.83041,-17.77778 -16.46784,-19.46199 6.54971,-3.36842 9.63743,-9.45029 9.63743,-16.5614 0,-14.69006 -10.47953,-19.64912 -23.76608,-19.64912 l -23.95322,0 z m 17.59064,30.22222 0,-16.65497 1.40351,0 c 7.67252,0 11.69591,2.33918 11.69591,7.85965 0,6.45614 -4.11696,8.79532 -11.69591,8.79532 l -1.40351,0 z m 0,33.40351 0,-18.24562 5.52047,0 c 8.32749,0 12.91228,2.52632 12.91228,9.63743 0,6.08187 -4.58479,8.60819 -12.91228,8.60819 l -5.52047,0 z"/>
		<path d="m 373.69298,152.80702 -16.2807,0 -31.1579,77.19298 18.90059,0 5.7076,-15.4386 29.38012,0 5.7076,15.4386 18.90058,0 -31.15789,-77.19298 z m 0.5614,46.31579 -17.40351,0 8.60819,-22.45614 0.18714,0 8.60818,22.45614 z"/>
		<path d="m 412.77047,152.80702 0,77.19298 29.28655,0 c 16,0 25.26316,-8.79532 25.26316,-21.52047 0,-12.44444 -6.83041,-17.77778 -16.46783,-19.46199 6.5497,-3.36842 9.63742,-9.45029 9.63742,-16.5614 0,-14.69006 -10.47953,-19.64912 -23.76608,-19.64912 l -23.95322,0 z m 17.59065,30.22222 0,-16.65497 1.40351,0 c 7.67251,0 11.6959,2.33918 11.6959,7.85965 0,6.45614 -4.11696,8.79532 -11.6959,8.79532 l -1.40351,0 z m 0,33.40351 0,-18.24562 5.52046,0 c 8.32749,0 12.91229,2.52632 12.91229,9.63743 0,6.08187 -4.5848,8.60819 -12.91229,8.60819 l -5.52046,0 z"/>
		<path d="m 468.92544,152.80702 28.44444,42.5731 0,34.61988 17.59065,0 0,-34.61988 28.44444,-42.5731 -21.1462,0 -16.09356,24.70175 -16.09357,-24.70175 -21.1462,0 z"/>
		<path d="m 568.83335,152.80702 -17.59065,0 0,77.19298 44.16375,0 0,-15.4386 -26.5731,0 0,-61.75438 z"/>
		<path d="m 605.59501,191.35672 c 0,22.54971 16.09357,40.04679 38.92398,40.04679 22.17544,0 38.83041,-17.49708 38.83041,-40.04679 0,-22.5497 -17.40351,-39.95321 -38.83041,-39.95321 -21.23976,0 -38.92398,17.40351 -38.92398,39.95321 z m 18.99416,0 c 0,-11.50877 6.36257,-23.01754 19.92982,-23.01754 13.66082,0 19.83626,11.50877 19.83626,23.01754 0,11.50878 -5.80117,23.01755 -19.83626,23.01755 -14.40936,0 -19.92982,-11.50877 -19.92982,-23.01755 z"/>
		<path d="m 713.70175,182.09357 0.18714,0 30.69006,47.90643 17.59064,0 0,-77.19298 -17.59064,0 0,47.90643 -0.18714,0 -30.69006,-47.90643 -17.59064,0 0,77.19298 17.59064,0 0,-47.90643 z"/>
		<path d="m 826.58917,199.02924 24.88889,0 0,30.97076 17.59065,0 0,-77.19298 -17.59065,0 0,30.78362 -24.88889,0 0,-30.78362 -17.59064,0 0,77.19298 17.59064,0 0,-30.97076 z"/>
		<path d="m 881.80852,191.35672 c 0,22.54971 16.09356,40.04679 38.92397,40.04679 22.17544,0 38.83041,-17.49708 38.83041,-40.04679 0,-22.5497 -17.40351,-39.95321 -38.83041,-39.95321 -21.23976,0 -38.92397,17.40351 -38.92397,39.95321 z m 18.99415,0 c 0,-11.50877 6.36257,-23.01754 19.92982,-23.01754 13.66082,0 19.83626,11.50877 19.83626,23.01754 0,11.50878 -5.80117,23.01755 -19.83626,23.01755 -14.40935,0 -19.92982,-11.50877 -19.92982,-23.01755 z"/>
		<path d="m 964.53507,168.24561 18.33918,0 0,61.75439 17.59065,0 0,-61.75439 18.3392,0 0,-15.43859 -54.26903,0 0,15.43859 z"/>
		<path d="m 1074.3027,152.80702 -44.1638,0 0,77.19298 44.1638,0 0,-15.4386 -26.5731,0 0,-15.53216 25.4502,0 0,-15.4386 -25.4502,0 0,-15.34503 26.5731,0 0,-15.43859 z"/>
		<path d="m 1107.0059,152.80702 -17.5907,0 0,77.19298 44.1638,0 0,-15.4386 -26.5731,0 0,-61.75438 z"/>
	</g>
	<g>
		<path d="m 369.08279,332.10526 -12.21053,0 L 333.50384,390 l 14.17544,0 4.2807,-11.57895 22.03509,0 4.2807,11.57895 14.17544,0 -23.36842,-57.89474 z m 0.42105,34.73685 -13.05263,0 6.45614,-16.84211 0.14035,0 6.45614,16.84211 z"/>
		<path d="m 399.6409,332.10526 0,57.89474 13.19299,0 0,-22.87719 L 430.5181,390 l 16.77193,0 -19.92983,-23.92982 c 7.08772,-2.24562 11.85965,-8.07018 11.85965,-16.77193 0,-11.36842 -8.14035,-17.19299 -18.87719,-17.19299 l -20.70176,0 z m 13.19299,25.68421 0,-15.15789 1.54386,0 c 4.98245,0 10.94736,0.35088 10.94736,7.57895 0,7.22807 -5.96491,7.57894 -10.94736,7.57894 l -1.54386,0 z"/>
		<path d="m 468.13541,354.07018 0.14036,0 23.01754,35.92982 13.19298,0 0,-57.89474 -13.19298,0 0,35.92983 -0.14035,0 -23.01755,-35.92983 -13.19298,0 0,57.89474 13.19298,0 0,-35.92982 z"/>
		<path d="m 515.32292,361.01754 c 0,16.91228 12.07017,30.03509 29.19298,30.03509 16.63158,0 29.1228,-13.12281 29.1228,-30.03509 0,-16.91228 -13.05263,-29.96491 -29.1228,-29.96491 -15.92983,0 -29.19298,13.05263 -29.19298,29.96491 z m 14.24561,0 c 0,-8.63157 4.77193,-17.26315 14.94737,-17.26315 10.24561,0 14.87719,8.63158 14.87719,17.26315 0,8.63158 -4.35088,17.26316 -14.87719,17.26316 -10.80702,0 -14.94737,-8.63158 -14.94737,-17.26316 z"/>
		<path d="m 597.65296,332.10526 -13.19298,0 0,57.89474 33.12281,0 0,-11.57895 -19.92983,0 0,-46.31579 z"/>
		<path d="m 629.07073,332.10526 0,57.89474 16.77193,0 c 15.92982,0 29.19298,-12.07018 29.19298,-28.98246 0,-16.8421 -13.33333,-28.91228 -29.19298,-28.91228 l -16.77193,0 z m 13.19298,46.10527 0,-34.31579 2.03509,0 c 9.82456,0 16.49123,7.50877 16.49123,17.19298 -0.0702,9.68421 -6.73685,17.12281 -16.49123,17.12281 l -2.03509,0 z"/>
		<path d="m 710.06853,332.10526 0,57.89474 21.96491,0 c 12,0 18.94737,-6.59649 18.94737,-16.14035 0,-9.33333 -5.12281,-13.33333 -12.35088,-14.59649 4.91229,-2.52632 7.22807,-7.08772 7.22807,-12.42105 0,-11.01755 -7.85964,-14.73685 -17.82456,-14.73685 l -17.96491,0 z m 13.19298,22.66667 0,-12.49123 1.05264,0 c 5.75438,0 8.77192,1.75439 8.77192,5.89474 0,4.8421 -3.08771,6.59649 -8.77192,6.59649 l -1.05264,0 z m 0,25.05263 0,-13.68421 4.14035,0 c 6.24562,0 9.68421,1.89474 9.68421,7.22807 0,4.5614 -3.43859,6.45614 -9.68421,6.45614 l -4.14035,0 z"/>
		<path d="m 794.92928,332.10526 -33.1228,0 0,57.89474 33.1228,0 0,-11.57895 -19.92982,0 0,-11.64912 19.08772,0 0,-11.57895 -19.08772,0 0,-11.50877 19.92982,0 0,-11.57895 z"/>
		<path d="m 820.7067,354.07018 0.14035,0 L 843.8646,390 l 13.19298,0 0,-57.89474 -13.19298,0 0,35.92983 -0.14035,0 -23.01755,-35.92983 -13.19298,0 0,57.89474 13.19298,0 0,-35.92982 z"/>
		<path d="m 883.68366,354.07018 0.14035,0 23.01755,35.92982 13.19298,0 0,-57.89474 -13.19298,0 0,35.92983 -0.14035,0 -23.01755,-35.92983 -13.19298,0 0,57.89474 13.19298,0 0,-35.92982 z"/>
		<path d="m 966.59048,332.10526 -33.12281,0 0,57.89474 33.12281,0 0,-11.57895 -19.92983,0 0,-11.64912 19.08772,0 0,-11.57895 -19.08772,0 0,-11.50877 19.92983,0 0,-11.57895 z"/>
		<path d="m 975.52576,343.68421 13.75439,0 0,46.31579 13.19295,0 0,-46.31579 13.7544,0 0,-11.57895 -40.70174,0 0,11.57895 z"/>
		<path d="m 1023.2889,343.68421 13.7544,0 0,46.31579 13.193,0 0,-46.31579 13.7544,0 0,-11.57895 -40.7018,0 0,11.57895 z"/>
	</g>
</svg>

<?xml version="1.0" encoding="utf-8"?>
<svg xmlns="http://www.w3.org/2000/svg" xmlns:svg="http://www.w3.org/2000/svg" version="1.1" viewBox="0 0 1400 440">
	<title>The titlepage for the Standard Ebooks edition of The Grand Babylon Hotel, by Arnold Bennett</title>
	<g aria-label="THE GRAND">
		<path d="m 395.20394,68.245613 h 18.33918 V 130 h 17.59065 V 68.245613 h 18.33918 V 52.807016 h -54.26901 z"/>
		<path d="m 478.39839,99.029239 h 24.88889 V 130 h 17.59064 V 52.807016 H 503.28728 V 83.590642 H 478.39839 V 52.807016 H 460.80774 V 130 h 17.59065 z"/>
		<path d="M 581.24342,52.807016 H 537.07968 V 130 h 44.16374 v -15.4386 h -26.5731 V 99.029239 h 25.45029 V 83.590642 H 554.67032 V 68.245613 h 26.5731 z"/>
		<path d="m 696.74196,86.771929 h -35.64912 v 13.567251 h 17.77778 c 0,9.45029 -8.32749,14.87719 -16.74854,14.87719 -10.8538,0 -19.64912,-10.66666 -19.64912,-23.766078 0,-13.380117 8.79532,-24.140352 19.64912,-24.140352 6.83041,0 12.72515,2.713451 17.21637,9.918129 L 690.84723,64.59649 c -6.73685,-8.140351 -16.18714,-13.192983 -29.75439,-13.192983 -21.7076,0 -37.61404,17.871346 -37.61404,40.046785 0,22.081868 16.84211,39.953218 37.61404,39.953218 15.1579,0 31.4386,-8.32749 35.64912,-27.88304 z"/>
		<path d="M 709.42616,52.807016 V 130 H 727.0168 V 99.497075 L 750.59575,130 h 22.36257 l -26.5731,-31.906433 c 9.4503,-2.994152 15.81287,-10.760234 15.81287,-22.362574 0,-15.157895 -10.8538,-22.923977 -25.16959,-22.923977 z M 727.0168,87.052631 V 66.842104 h 2.05848 c 6.64328,0 14.59649,0.467836 14.59649,10.105263 0,9.637428 -7.95321,10.105264 -14.59649,10.105264 z"/>
		<path d="m 820.69956,52.807016 h -16.2807 L 773.26097,130 h 18.90058 l 5.7076,-15.4386 h 29.38012 L 832.95687,130 h 18.90059 z m 0.56141,46.31579 h -17.40351 l 8.60819,-22.45614 h 0.18713 z"/>
		<path d="m 877.36769,82.093566 h 0.18714 L 908.24489,130 h 17.59064 V 52.807016 h -17.59064 v 47.906434 h -0.18714 L 877.36769,52.807016 H 859.77705 V 130 h 17.59064 z"/>
		<path d="M 942.07969,52.807016 V 130 h 22.36258 c 21.23976,0 38.92393,-16.09357 38.92393,-38.643276 0,-22.45614 -17.77773,-38.549708 -38.92393,-38.549708 z M 959.67034,114.2807 V 68.526315 h 2.71345 c 13.09941,0 21.9883,10.011696 21.9883,22.923977 -0.0936,12.912278 -8.98245,22.830408 -21.9883,22.830408 z"/>
	</g>
	<g aria-label="BABYLON HOTEL">
		<path d="M 268.99853,152.80702 V 230 h 29.28655 c 16,0 25.26316,-8.79532 25.26316,-21.52047 0,-12.44444 -6.83041,-17.77778 -16.46784,-19.46199 6.54971,-3.36842 9.63743,-9.45029 9.63743,-16.5614 0,-14.69006 -10.47953,-19.64912 -23.76608,-19.64912 z m 17.59064,30.22222 v -16.65497 h 1.40351 c 7.67252,0 11.69591,2.33918 11.69591,7.85965 0,6.45614 -4.11696,8.79532 -11.69591,8.79532 z m 0,33.40351 v -18.24562 h 5.52047 c 8.32749,0 12.91228,2.52632 12.91228,9.63743 0,6.08187 -4.58479,8.60819 -12.91228,8.60819 z"/>
		<path d="m 373.69298,152.80702 h -16.2807 L 326.25438,230 h 18.90059 l 5.7076,-15.4386 h 29.38012 L 385.95029,230 h 18.90058 z m 0.5614,46.31579 h -17.40351 l 8.60819,-22.45614 h 0.18714 z"/>
		<path d="M 412.77047,152.80702 V 230 h 29.28655 c 16,0 25.26316,-8.79532 25.26316,-21.52047 0,-12.44444 -6.83041,-17.77778 -16.46783,-19.46199 6.5497,-3.36842 9.63742,-9.45029 9.63742,-16.5614 0,-14.69006 -10.47953,-19.64912 -23.76608,-19.64912 z m 17.59065,30.22222 v -16.65497 h 1.40351 c 7.67251,0 11.6959,2.33918 11.6959,7.85965 0,6.45614 -4.11696,8.79532 -11.6959,8.79532 z m 0,33.40351 v -18.24562 h 5.52046 c 8.32749,0 12.91229,2.52632 12.91229,9.63743 0,6.08187 -4.5848,8.60819 -12.91229,8.60819 z"/>
		<path d="m 468.92544,152.80702 28.44444,42.5731 V 230 h 17.59065 v -34.61988 l 28.44444,-42.5731 h -21.1462 l -16.09356,24.70175 -16.09357,-24.70175 z"/>
		<path d="M 568.83335,152.80702 H 551.2427 V 230 h 44.16375 v -15.4386 h -26.5731 z"/>
		<path d="m 605.59501,191.35672 c 0,22.54971 16.09357,40.04679 38.92398,40.04679 22.17544,0 38.83041,-17.49708 38.83041,-40.04679 0,-22.5497 -17.40351,-39.95321 -38.83041,-39.95321 -21.23976,0 -38.92398,17.40351 -38.92398,39.95321 z m 18.99416,0 c 0,-11.50877 6.36257,-23.01754 19.92982,-23.01754 13.66082,0 19.83626,11.50877 19.83626,23.01754 0,11.50878 -5.80117,23.01755 -19.83626,23.01755 -14.40936,0 -19.92982,-11.50877 -19.92982,-23.01755 z"/>
		<path d="m 713.70175,182.09357 h 0.18714 L 744.57895,230 h 17.59064 v -77.19298 h -17.59064 v 47.90643 h -0.18714 L 713.70175,152.80702 H 696.11111 V 230 h 17.59064 z"/>
		<path d="m 826.58917,199.02924 h 24.88889 V 230 h 17.59065 v -77.19298 h -17.59065 v 30.78362 H 826.58917 V 152.80702 H 808.99853 V 230 h 17.59064 z"/>
		<path d="m 881.80852,191.35672 c 0,22.54971 16.09356,40.04679 38.92397,40.04679 22.17544,0 38.83041,-17.49708 38.83041,-40.04679 0,-22.5497 -17.40351,-39.95321 -38.83041,-39.95321 -21.23976,0 -38.92397,17.40351 -38.92397,39.95321 z m 18.99415,0 c 0,-11.50877 6.36257,-23.01754 19.92982,-23.01754 13.66082,0 19.83626,11.50877 19.83626,23.01754 0,11.50878 -5.80117,23.01755 -19.83626,23.01755 -14.40935,0 -19.92982,-11.50877 -19.92982,-23.01755 z"/>
		<path d="m 964.53507,168.24561 h 18.33918 V 230 h 17.59065 v -61.75439 h 18.3392 v -15.43859 h -54.26903 z"/>
		<path d="m 1074.3027,152.80702 h -44.1638 V 230 h 44.1638 v -15.4386 h -26.5731 v -15.53216 h 25.4502 v -15.4386 h -25.4502 v -15.34503 h 26.5731 z"/>
		<path d="m 1107.0059,152.80702 h -17.5907 V 230 h 44.1638 v -15.4386 h -26.5731 z"/>
	</g>
	<g aria-label="ARNOLD BENNETT">
		<path d="M 369.08279,332.10526 H 356.87226 L 333.50384,390 h 14.17544 l 4.2807,-11.57895 h 22.03509 L 378.27577,390 h 14.17544 z m 0.42105,34.73685 H 356.45121 L 362.90735,350 h 0.14035 z"/>
		<path d="M 399.6409,332.10526 V 390 h 13.19299 V 367.12281 L 430.5181,390 h 16.77193 L 427.3602,366.07018 c 7.08772,-2.24562 11.85965,-8.07018 11.85965,-16.77193 0,-11.36842 -8.14035,-17.19299 -18.87719,-17.19299 z m 13.19299,25.68421 v -15.15789 h 1.54386 c 4.98245,0 10.94736,0.35088 10.94736,7.57895 0,7.22807 -5.96491,7.57894 -10.94736,7.57894 z"/>
		<path d="m 468.13541,354.07018 h 0.14036 L 491.29331,390 h 13.19298 v -57.89474 h -13.19298 v 35.92983 h -0.14035 L 468.13541,332.10526 H 454.94243 V 390 h 13.19298 z"/>
		<path d="m 515.32292,361.01754 c 0,16.91228 12.07017,30.03509 29.19298,30.03509 16.63158,0 29.1228,-13.12281 29.1228,-30.03509 0,-16.91228 -13.05263,-29.96491 -29.1228,-29.96491 -15.92983,0 -29.19298,13.05263 -29.19298,29.96491 z m 14.24561,0 c 0,-8.63157 4.77193,-17.26315 14.94737,-17.26315 10.24561,0 14.87719,8.63158 14.87719,17.26315 0,8.63158 -4.35088,17.26316 -14.87719,17.26316 -10.80702,0 -14.94737,-8.63158 -14.94737,-17.26316 z"/>
		<path d="M 597.65296,332.10526 H 584.45998 V 390 h 33.12281 v -11.57895 h -19.92983 z"/>
		<path d="M 629.07073,332.10526 V 390 h 16.77193 c 15.92982,0 29.19298,-12.07018 29.19298,-28.98246 0,-16.8421 -13.33333,-28.91228 -29.19298,-28.91228 z m 13.19298,46.10527 v -34.31579 h 2.03509 c 9.82456,0 16.49123,7.50877 16.49123,17.19298 -0.0702,9.68421 -6.73685,17.12281 -16.49123,17.12281 z"/>
		<path d="M 710.06853,332.10526 V 390 h 21.96491 c 12,0 18.94737,-6.59649 18.94737,-16.14035 0,-9.33333 -5.12281,-13.33333 -12.35088,-14.59649 4.91229,-2.52632 7.22807,-7.08772 7.22807,-12.42105 0,-11.01755 -7.85964,-14.73685 -17.82456,-14.73685 z m 13.19298,22.66667 V 342.2807 h 1.05264 c 5.75438,0 8.77192,1.75439 8.77192,5.89474 0,4.8421 -3.08771,6.59649 -8.77192,6.59649 z m 0,25.05263 v -13.68421 h 4.14035 c 6.24562,0 9.68421,1.89474 9.68421,7.22807 0,4.5614 -3.43859,6.45614 -9.68421,6.45614 z"/>
		<path d="m 794.92928,332.10526 h -33.1228 V 390 h 33.1228 v -11.57895 h -19.92982 v -11.64912 h 19.08772 v -11.57895 h -19.08772 v -11.50877 h 19.92982 z"/>
		<path d="m 820.7067,354.07018 h 0.14035 L 843.8646,390 h 13.19298 V 332.10526 H 843.8646 v 35.92983 h -0.14035 L 820.7067,332.10526 H 807.51372 V 390 h 13.19298 z"/>
		<path d="m 883.68366,354.07018 h 0.14035 L 906.84156,390 h 13.19298 v -57.89474 h -13.19298 v 35.92983 h -0.14035 L 883.68366,332.10526 H 870.49068 V 390 h 13.19298 z"/>
		<path d="M 966.59048,332.10526 H 933.46767 V 390 h 33.12281 v -11.57895 h -19.92983 v -11.64912 h 19.08772 v -11.57895 h -19.08772 v -11.50877 h 19.92983 z"/>
		<path d="m 975.52576,343.68421 h 13.75439 V 390 h 13.19295 v -46.31579 h 13.7544 v -11.57895 h -40.70174 z"/>
		<path d="m 1023.2889,343.68421 h 13.7544 V 390 h 13.193 v -46.31579 h 13.7544 v -11.57895 h -40.7018 z"/>
	</g>
</svg>
